X: 20332
M: 3/8
L: 1/16
K: G
!p!(ed)(^cd)(BG) | (ed)(^cd)(BG) | (gf)(gb)(ag) | (fe).d2 Bd |\
(ed)(^cd)(BG) | (ed)(^cd)(BG) |1 (FE)(cA)(GF) :|2 G4 "^Fine"y:|
z2 |\
(DF)(AF)(DF) | (GD)(BD)(AD) | (cD)(BD)(AG) | ^c2d=cB"^D.C."c |]


